lib/openlayers/art/zoom-world.svg

<svg height="18" width="18" xmlns="http://www.w3.org/2000/svg"><path d="m-18 0h18v18h-18z" fill="#00008b" transform="rotate(-90)"/><g fill="none" stroke="#fff" stroke-width=".5"><path d="m16.9 9.3a7.1 7.1 0 1 1 -14.1 0 7.1 7.1 0 1 1 14.1 0zm-8.8-8.2c7.2 8.4.3 16 .3 16m3.2-15.7c7.3 8.1 0 15.4 0 15.4m-6.4-14.7c5.9 7.6.1 14.2.1 14.2m-2.6-12.5c3.7 5.4.2 10.6.2 10.6" transform="matrix(1.155321 0 0 1.155321 -2.292065 -1.795955)"/><path d="m16.9 9.3a7.1 7.1 0 1 1 -14.1 0 7.1 7.1 0 1 1 14.1 0zm-8.8-8.2c7.2 8.4.3 16 .3 16m3.2-15.7c7.3 8.1 0 15.4 0 15.4m-6.4-14.7c5.9 7.6.1 14.2.1 14.2m-2.6-12.5c3.7 5.4.2 10.6.2 10.6" transform="matrix(-.07243071275 1.15304848359 -1.15304848359 -.07243071275 20.51553206097 -1.56550109301)"/></g></svg>

<svg xmlns:svg="http://www.w3.org/2000/svg" xmlns="http://www.w3.org/2000/svg" xmlns:inkscape="http://www.inkscape.org/namespaces/inkscape" inkscape:export-ydpi="90" inkscape:export-xdpi="90" inkscape:export-filename="/Users/phil/Documents/work/metacarta/2svn.openlayers.net/follower/code/b-edits-1/openlayers/assets/ui_elements/zoom-minus-mini.png" inkscape:version="0.4" height="18" width="18">
<style>
.s0{
  fill:none;
  stroke-opacity:1;
  stroke-width:0.5;
  stroke:#fff;
}
.s1{
  display:none;
}

</style>  <g inkscape:groupmode="layer" inkscape:label="background">
    <rect width="18" height="18" x="-18" y="0" transform="matrix(0.000000,-1.000000,1.000000,0.000000,0.000000,0.000000)" style="fill-opacity:1;fill:#00008b"/>
  </g>
  <g inkscape:label="graticule" inkscape:groupmode="layer">
    <g transform="translate(0.000000,-4.419417e-2)">
      <path transform="matrix(1.155321,0.000000,0.000000,1.155321,-2.292065,-1.751761)" d="M16.9 9.3A7.1 7.1 0 1 1 2.8 9.3 7.1 7.1 0 1 1 16.9 9.3zM8.1 1.1C15.3 9.5 8.4 17.1 8.4 17.1M11.6 1.4C18.9 9.5 11.6 16.8 11.6 16.8M5.2 2.1C11.1 9.7 5.3 16.3 5.3 16.3M2.7 3.8C6.4 9.2 2.9 14.4 2.9 14.4" class="s0"/>
    </g>
    <g transform="matrix(-6.269315e-2,0.998033,-0.998033,-6.269315e-2,18.62352,0.612232)">
      <path transform="matrix(1.155321,0.000000,0.000000,1.155321,-2.292065,-1.751761)" d="M16.9 9.3A7.1 7.1 0 1 1 2.8 9.3 7.1 7.1 0 1 1 16.9 9.3zM8.1 1.1C15.3 9.5 8.4 17.1 8.4 17.1M11.6 1.4C18.9 9.5 11.6 16.8 11.6 16.8M5.2 2.1C11.1 9.7 5.3 16.3 5.3 16.3M2.7 3.8C6.4 9.2 2.9 14.4 2.9 14.4" class="s0"/>
    </g>
  </g>
  <g inkscape:label="zoom" inkscape:groupmode="layer" display="none">
    <text transform="scale(1.000000,-1.000000)" y="-3.4" x="3.7" style="fill-opacity:1;fill:#fff;font-family:Helvetica;font-size:18;font-weight:bold;stroke-linejoin:round;stroke-opacity:1;stroke-width:1;stroke:#fff;text-anchor:start;writing-mode:lr-tb">
      <tspan y="-3.4" x="3.7">
        &#8722;
      </tspan>
    </text>
  </g>
  <g inkscape:label="overlay" inkscape:groupmode="layer" display="none">
    <path d="M3 9C3 9.5 3.2 9.9 3.6 10.2 3.6 10.3 3.9 10.5 4.5 10.8L8.2 13.2C8.3 13.3 8.4 13.4 8.6 13.5 8.8 13.5 9 13.6 9.2 13.6 9.6 13.6 9.9 13.4 10.2 13.2 10.4 13 10.6 12.7 10.6 12.3 10.6 11.9 10.3 11.5 9.8 11.2L8.6 10.4 14.5 10.4C15 10.4 15.4 10.3 15.7 10 16 9.8 16.1 9.4 16.1 9 16.1 8.5 16 8.2 15.7 8 15.4 7.7 15 7.6 14.5 7.6L8.6 7.6 10 6.7C10.2 6.6 10.3 6.4 10.4 6.3 10.5 6.1 10.5 5.9 10.5 5.7 10.5 5.3 10.4 5 10.1 4.8 9.9 4.6 9.5 4.4 9.1 4.4 8.8 4.4 8.4 4.6 8.1 4.8L4 7.5C3.6 7.7 3.4 8 3.3 8.2 3.1 8.4 3 8.7 3 9L3 9" style="fill-opacity:1;fill:#fff;font-family:Verdana;font-size:12;text-anchor:start;writing-mode:lr-tb"/>
  </g>
  <g inkscape:label="pan triangle" inkscape:groupmode="layer" display="none">
    <path transform="matrix(0.000000,-1.331000,1.331000,0.000000,2.038879,16.92102)" d="M9.3 9.6L5.5 7.4 1.7 5.2 5.5 3 9.3 0.8 9.3 5.2 9.3 9.6z" inkscape:randomized="0" inkscape:rounded="0" inkscape:flatsided="false" style="fill-opacity:1;fill:#fff"/>
  </g>
</svg>
